X:1
L:1/8
Q:1/8=130
M:9/8
K:Emin
""^LONG DANCE"" EFE FED G2 F | EFE cBA BGE | EFE FED G2 G/A/ | BAG FAG FED :|""^5"" BGB AFA G2 D | 
 GAB dee dBA | BGB AFA G2 A | BAG FAG FED :|""^9"" gfg efe e2 e/f/ | gfg efg afd | gfg efe e2 g/a/ | 
 bag fag fed :|""^13"" eBB e2 f g2 f | eBB efg afd | eBB e2 f g2 g/a/ | bag fag fed :| 
""^17"" edB dBA G2 A | GAB dee dBA | edB dBA G2 A |1 BAG FAG FED :|2 BAG FAG FED |""^final"" E6 z3 |]
